src/main/resources/icons/DatabaseIcons/icons/user_mapping.svg

<svg xmlns="http://www.w3.org/2000/svg" width="16" height="16" viewBox="0 0 16 16">
  <path fill="#9AA7B0" fill-opacity=".8" fill-rule="evenodd" d="M6 10C7.38125 10 8.5 8.88125 8.5 7.5 8.5 6.11875 7.38125 5 6 5 4.61875 5 3.5 6.11875 3.5 7.5 3.5 8.88125 4.61875 10 6 10zM6 11C4.33125 11 1 11.8933333 1 13.6666667L1 15 11 15 11 13.6666667C11 11.8933333 7.66875 11 6 11zM12.5 5.5C13.466875 5.5 14.25 4.716875 14.25 3.75 14.25 2.783125 13.466875 2 12.5 2 11.533125 2 10.75 2.783125 10.75 3.75 10.75 4.716875 11.533125 5.5 12.5 5.5zM12.5 6C11.331875 6 9 6.67 9 8L9 9 16 9 16 8C16 6.67 13.668125 6 12.5 6z"/>
</svg>

<svg xmlns="http://www.w3.org/2000/svg" width="16" height="16" viewBox="0 0 16 16"><rect id="frame" width="16" height="16" fill="none"/><path fill="#9AA7B0" fill-opacity=".8" fill-rule="evenodd" d="M6 10a2.5 2.5 0 1 0 .001-4.999A2.5 2.5 0 0 0 6 10zm0 1c-1.669 0-5 .893-5 2.667V15h10v-1.333C11 11.893 7.669 11 6 11zm6.5-5.5a1.75 1.75 0 1 0 .001-3.499A1.75 1.75 0 0 0 12.5 5.5zm0 .5C11.332 6 9 6.67 9 8v1h7V8c0-1.33-2.332-2-3.5-2z"/></svg>
